X: 21464
T: Kevin McHugh's
R: slide
M: 12/8
K: Dmajor
f2Af2Af3fef|a2f ede fdBA2a|
f2Af2Af3fef|1 a2f ede edc dag:|2 a2f ede edc d2B||
A2A f2d A3 AFG|AFA DF/G/A B6|
B^AB c2B AdB c2B|ABA GFE FAF FAE|
DFA f2d A3 AFG|AFA DFA B6|
B^AB c2B AdB c2B|1 ABA GFE DFA a2g:|2 dcd ede fef a2g||

